X: 13603
T: Flypolska
R: waltz
M: 3/4
K: Edorian
E2 E/F/G/A/ Be|dB/d/ cA/c/ B/A/G/F/|E2 E/F/G/A/ Be|dB/d/ cA B2|B2 E/F/G/A/ Be|dB/d/ cA/c/ B/A/G/F/|
E2 E/F/G/A/ BG|1 FE/D/ E2 E2:|2 FE/D/ E2 f2|:f2 fe/f/ de/f/|g2{a/} gf g/f/e/g/|f2 fe/f/ de/f/|
g2{a/} gf/g/ e/f/g/a/|b2 bg/b/ af/a/|ge/g/ fd B2|B2 E/F/G/A/ BG|1 FE/D/ E2 E2:|2 FE/D/ E2 E2||

